X:156
T:Reel 156
M:4/4
K:Amaj
L:1/8
C2B,D CA,A,B,|C2B,D CA,A,C|C2B,C A,2AG||EFED CA,A,2:||2AFED CA,A,2|A2cA eAcA|EAcA BAFA|EAcA BAcA|EAGB ABc2|eAcA BAcA|EAcA BAFG|ABcd BcdB|ceBd cAA2|
